X:1
T:Title
%%score { 1 | 2 }
L:1/8
M:4/4
K:D
V:1 treble nm="Grand Piano"
V:2 bass 
V:1
 z4 z2[Q:1/4=100] F>G | A>^G A>B A2 D>E |[M:3/4] F>=F ^F>G F2 |[M:1/4] F>F | %4
[M:4/4] [CE]>[=C^D] [^CE]>[=DF] [CA]2 [EG]2 |[M:3/4] F6 |[M:1/4] F>G |[M:4/4] A>^G A>B A2 D>E | %8
[M:3/4] F>=F ^F>G F2 |[M:1/4] F>F |[M:4/4] E2 A2 A2 ^G2 |[M:3/4] A6 |[M:1/4] A2 | %13
[M:4/4] [Ad]2 [Ad]2 [GB]2 [Gc]>[GB] | [EA]2 [CG]2 F2 F2 | B2 B2 A2 [DB]>[DA] | %16
 [B,EG]2 [A,EG]2 [A,DF]2 [A,D]>[B,DE] | [A,DF]4[K:bass] [G,CE]4 |[M:3/4] [F,D]6 |] %19
V:2
 z4 z2 [D,A,D]>[D,G,D] | [D,F,D]>[D,=F,D] [D,^F,D]>[D,G,D] [D,F,D]2 [F,A,]>[E,A,C] | %2
[M:3/4] [D,A,D]>[D,^G,D] [D,A,D]>[D,B,D] [D,A,D]2 |[M:1/4] [D,A,D]>[D,A,D] | %4
[M:4/4] [A,,A,]>[A,,A,] [A,,A,]>[A,,A,] [A,,A,]2 [C,A,]2 |[M:3/4] [D,A,D]6 | %6
[M:1/4] [D,A,D]>[D,G,D] |[M:4/4] [D,F,D]>[D,=F,D] [D,^F,D]>[D,G,D] [D,F,D]2 [F,A,]>[E,A,C] | %8
[M:3/4] [D,A,D]>[D,^G,D] [D,A,D]>[D,B,D] [D,A,D]2 |[M:1/4] [D,F,D]>[D,A,D] | %10
[M:4/4] [E,A,C]2 [E,CE]2 [E,B,D]2 [E,DE]2 |[M:3/4] [A,CE]6 |[M:1/4] [G,CE]2 | %13
[M:4/4] [F,D]2 [F,D]2 [G,D]2 [E,E]>[E,E] | [C,A,]2 [A,,A,]2 [D,A,D]2 [D,A,]2 | %15
 [G,B,D]2 [G,CE]2 [F,DF]2 [B,,B,]>[B,,B,] | E,2 C,2 D,2 F,,>G,, | A,,4 A,,4 |[M:3/4] D,6 |] %19

